!!!OTL: Christus, die edle Blume
!!!ARE: Europa, Mitteleuropa, Deutschland
!!!SCT: A0586
!!!YEM: Copyright 1995, estate of Helmut Schaffrath.
**kern
*ICvox
*Ivox
!! Mixed meters:  4/1; 6/1
*M6/1
*k[]
*a:
{2a
=1
1a
1a
1b
1b
=2
1ccn
1ccn
1.b}
{2b
=3
1ee
1dd
1ccn
1b
=4
1.a
2b
1ccn}
{1dd
=5
1dd
1b
1ee
1ee
=6
1ccn
1dd
1.dd}
{2dd
=7
1ee
1ee
1ccn
1dd
=8
0ccn
0a
0b
=9
0.a
2r}
==
!!!AGN: Romanze, Ballade, Lied, religioeses Lied
!! Triller 1555
!!!ONB: ESAC (Essen Associative Code) Database: ALTDEU
!!!AMT: irregular
!!!AIN: vox
!!!EED: Helmut Schaffrath
!!!EEV: 1.0
*-
